!!!COM: Corelli, Arcangelo
!!!OTL: 
!!!ONM: Opus 6, No. 11
!!!OMV: 2
!!!CDT: 1653/2/17/-1713/1/8/
!!!OCY: Italia
**kern	**kern	**kern	**kern	**kern	**kern	**kern
*clefC	*clefG	*clefG	*clefG	*clefC	*clefG	*clefG
*k[b-]	*k[b-]	*k[b-]	*k[b-]	*k[b-]	*k[b-]	*k[b-]
*F:	*F:	*F:	*F:	*F:	*F:	*F:
*M4/4	*M4/4	*M4/4	*M4/4	*M4/4	*M4/4	*M4/4
=1	=1	=1	=1	=1	=1	=1
4B-	4f	4b-	4dd	4B-	4b-	4dd
4r	4r	4r	4r	4r	4r	4r
4F	4f	4a	4cc	4F	4a	4cc
4r	4r	4r	4r	4r	4r	4r
=2	=2	=2	=2	=2	=2	=2
4B-	4f	4b-	4dd	16B-	4b-	4dd
.	.	.	.	16A	.	.
.	.	.	.	16B-	.	.
.	.	.	.	16c	.	.
2.r	2.r	2.r	2.r	16B-	4dd	4b-
.	.	.	.	16d	.	.
.	.	.	.	16c	.	.
.	.	.	.	16B-	.	.
.	.	.	.	16A	4cc	4ff
.	.	.	.	16G	.	.
.	.	.	.	16A	.	.
.	.	.	.	16B-	.	.
.	.	.	.	16A	4f	8r
.	.	.	.	16c	.	.
.	.	.	.	16B-	.	8f
.	.	.	.	16A	.	.
=3	=3	=3	=3	=3	=3	=3
4G	4d	4dd	4b-	16G	8r	4b-
.	.	.	.	16F	.	.
.	.	.	.	16G	8bb-	.
.	.	.	.	16A	.	.
4C	4c	4ee	4b-	16G	4ee	8r
.	.	.	.	16B-	.	.
.	.	.	.	16A	.	8cc
.	.	.	.	16G	.	.
4F	4c	4ff	4a	16F	8r	4a
.	.	.	.	16E	.	.
.	.	.	.	16F	8cc	.
.	.	.	.	16G	.	.
4r	4r	4r	4r	16F	4ff	8r
.	.	.	.	16G	.	.
.	.	.	.	16F	.	8ff
.	.	.	.	16E-	.	.
=4	=4	=4	=4	=4	=4	=4
2r	2.r	2r	2r	16D	8r	4bb-
.	.	.	.	16B-	.	.
.	.	.	.	16A	8ff	.
.	.	.	.	16B-	.	.
.	.	.	.	16D	4bb-	8r
.	.	.	.	16B-	.	.
.	.	.	.	16A	.	8ff
.	.	.	.	16B-	.	.
4E-	.	4b-	4gg	16E-	8r	4gg
.	.	.	.	16F	.	.
.	.	.	.	16G	8bb-	.
.	.	.	.	16F	.	.
4r	4g	4r	4r	16E-	4gg	8r
.	.	.	.	16F	.	.
.	.	.	.	16G	.	8gg
.	.	.	.	16F	.	.
=5	=5	=5	=5	=5	=5	=5
2r	2r	2r	2r	16E	8r	4ccc
.	.	.	.	16c	.	.
.	.	.	.	16B	8gg	.
.	.	.	.	16c	.	.
.	.	.	.	16E	4ccc	8r
.	.	.	.	16c	.	.
.	.	.	.	16B	.	8gg
.	.	.	.	16c	.	.
4F	4f	4cc	4aa	16F	8r	4aa
.	.	.	.	16E	.	.
.	.	.	.	16F	8ccc	.
.	.	.	.	16G	.	.
4r	4r	4r	4r	16F	4aa	8r
.	.	.	.	16G	.	.
.	.	.	.	16F	.	8ff
.	.	.	.	16E-	.	.
=6	=6	=6	=6	=6	=6	=6
2r	2r	2r	2r	16D	8r	4bb-
.	.	.	.	16B-	.	.
.	.	.	.	16A	8ff	.
.	.	.	.	16B-	.	.
.	.	.	.	16D	4bb-	8r
.	.	.	.	16B-	.	.
.	.	.	.	16A	.	8ff
.	.	.	.	16B-	.	.
4E-	4g	4b-	4gg	16E-	8r	4gg
.	.	.	.	16D	.	.
.	.	.	.	16E-	8b-	.
.	.	.	.	16F	.	.
4r	4r	4r	4r	16G	4ee-	8r
.	.	.	.	16F	.	.
.	.	.	.	16G	.	8bb-
.	.	.	.	16E-	.	.
=7	=7	=7	=7	=7	=7	=7
4F	4f	4a	4cc	16F	8r	4aa
.	.	.	.	16E	.	.
.	.	.	.	16F	8cc	.
.	.	.	.	16G	.	.
4FF	4f	4a	4ff	16A	4ff	8r
.	.	.	.	16G	.	.
.	.	.	.	16A	.	8ff
.	.	.	.	16F	.	.
4BB-	4f	4b-	4dd	16B-	8r	4dd
.	.	.	.	16A	.	.
.	.	.	.	16B-	8f	.
.	.	.	.	16c	.	.
4r	4r	4r	4r	16d	4b-	8r
.	.	.	.	16c	.	.
.	.	.	.	16d	.	8b-
.	.	.	.	16B-	.	.
=8	=8	=8	=8	=8	=8	=8
4A	4f	4f	4cc	16A	8r	4cc
.	.	.	.	16G	.	.
.	.	.	.	16A	8cc	.
.	.	.	.	16B-	.	.
4r	4r	4r	4r	16c	4a	8r
.	.	.	.	16B-	.	.
.	.	.	.	16c	.	8ff
.	.	.	.	16A	.	.
4B-	4f	4f	4dd	16B-	8r	4dd
.	.	.	.	16A	.	.
.	.	.	.	16B-	8ff	.
.	.	.	.	16c	.	.
4r	4r	4r	4r	16d	4bb-	8r
.	.	.	.	16c	.	.
.	.	.	.	16d	.	8gg
.	.	.	.	16B-	.	.
=9	=9	=9	=9	=9	=9	=9
4c	4c	4ee	4gg	16c	8r	4ee
.	.	.	.	16B-	.	.
.	.	.	.	16c	8gg	.
.	.	.	.	16d	.	.
4C	4c	4ee	4ccc	16e	4ccc	8r
.	.	.	.	16d	.	.
.	.	.	.	16e	.	8ccc
.	.	.	.	16c	.	.
4F	4c	4ff	4aa	16f	8r	4aa
.	.	.	.	16g	.	.
.	.	.	.	16f	8cc	.
.	.	.	.	16g	.	.
4r	4r	4r	4r	16e	[4ff	8r
.	.	.	.	16f	.	.
.	.	.	.	16e	.	8cc
.	.	.	.	16f	.	.
=10	=10	=10	=10	=10	=10	=10
1r	1r	1r	1r	16d	8ff]	4.ff
.	.	.	.	16e	.	.
.	.	.	.	16d	8cc	.
.	.	.	.	16e	.	.
.	.	.	.	16c	4.ff	.
.	.	.	.	16d	.	.
.	.	.	.	16c	.	8cc
.	.	.	.	16d	.	.
.	.	.	.	16B-	.	4.ff
.	.	.	.	16c	.	.
.	.	.	.	16B-	8cc	.
.	.	.	.	16c	.	.
.	.	.	.	16A	4ff	.
.	.	.	.	16B-	.	.
.	.	.	.	16c	.	8cc
.	.	.	.	16A	.	.
=11	=11	=11	=11	=11	=11	=11
4B-	4f	4f	4.dd	16B-	8r	4dd
.	.	.	.	16A	.	.
.	.	.	.	16B-	8f	.
.	.	.	.	16c	.	.
4BB-	8r	2b-	.	16d	2b-	8r
.	.	.	.	16c	.	.
.	8b-	.	8d	16d	.	8d
.	.	.	.	16B-	.	.
4C	4g	.	8e	16c	.	8e
.	.	.	.	16d	.	.
.	.	.	8c	16c	.	8c
.	.	.	.	16B-	.	.
4AA	8r	8.cc	[4f	16A	8.cc	[4f
.	.	.	.	16G	.	.
.	8a	.	.	16A	.	.
.	.	16dd	.	16F	16dd	.
=12	=12	=12	=12	=12	=12	=12
4BB-	8d	4a	4f]	16B-	4a	4f]
.	.	.	.	16A	.	.
.	8f	.	.	16B-	.	.
.	.	.	.	16G	.	.
4C	4c	4g	4e	8c	4g	4e
.	.	.	.	8C	.	.
4FF	4A	4f	4f	16f	8f	4f
.	.	.	.	16g	.	.
.	.	.	.	16f	8cc	.
.	.	.	.	16g	.	.
4r	4r	4r	4r	16e	[4ff	8r
.	.	.	.	16f	.	.
.	.	.	.	16e	.	8cc
.	.	.	.	16f	.	.
=13	=13	=13	=13	=13	=13	=13
1r	1r	1r	1r	16d	8ff]	4.ff
.	.	.	.	16e	.	.
.	.	.	.	16d	8cc	.
.	.	.	.	16e	.	.
.	.	.	.	16c	4.ff	.
.	.	.	.	16d	.	.
.	.	.	.	16c	.	8cc
.	.	.	.	16d	.	.
.	.	.	.	16B-	.	4.ff
.	.	.	.	16c	.	.
.	.	.	.	16B-	8cc	.
.	.	.	.	16c	.	.
.	.	.	.	16A	4ff	.
.	.	.	.	16B-	.	.
.	.	.	.	16c	.	8cc
.	.	.	.	16A	.	.
=14	=14	=14	=14	=14	=14	=14
4B-	4f	4f	4.dd	16B-	8r	4dd
.	.	.	.	16A	.	.
.	.	.	.	16B-	8f	.
.	.	.	.	16c	.	.
4BB-	8r	2b-	.	16d	2b-	8r
.	.	.	.	16c	.	.
.	8b-	.	8d	16d	.	8d
.	.	.	.	16B-	.	.
4C	4g	.	8e	16c	.	8e
.	.	.	.	16d	.	.
.	.	.	8c	16c	.	8c
.	.	.	.	16B-	.	.
4AA	8r	8.cc	[4f	16A	8.cc	[4f
.	.	.	.	16G	.	.
.	8a	.	.	16A	.	.
.	.	16dd	.	16F	16dd	.
=15	=15	=15	=15	=15	=15	=15
4BB-	8d	4a	4f]	16B-	4a	4f]
.	.	.	.	16A	.	.
.	8f	.	.	16B-	.	.
.	.	.	.	16G	.	.
4C	4c	4g	4e	8c	4g	4e
.	.	.	.	8C	.	.
2FF	2A	2f	2f	2F	2f	2f
=16	=16	=16	=16	=16	=16	=16
4F	4c	4cc	4a	16F	4f	4a
.	.	.	.	16A	.	.
.	.	.	.	16c	.	.
.	.	.	.	16A	.	.
4r	4r	4r	4r	16F	4a	4cc
.	.	.	.	16A	.	.
.	.	.	.	16c	.	.
.	.	.	.	16A	.	.
4E	4c	4g	4cc	16E	4cc	4g
.	.	.	.	16G	.	.
.	.	.	.	16c	.	.
.	.	.	.	16G	.	.
4r	4r	4r	4r	16E	4c	8r
.	.	.	.	16G	.	.
.	.	.	.	16c	.	8cc
.	.	.	.	16G	.	.
=17	=17	=17	=17	=17	=17	=17
4F	4c	4cc	4a	16F	8r	4a
.	.	.	.	16A	.	.
.	.	.	.	16c	8cc	.
.	.	.	.	16A	.	.
4r	4r	4r	4r	16F	4a	8r
.	.	.	.	16A	.	.
.	.	.	.	16c	.	8a
.	.	.	.	16A	.	.
4F#	4d	4a	4dd	16F#	8r	4dd
.	.	.	.	16A	.	.
.	.	.	.	16d	8a	.
.	.	.	.	16A	.	.
4r	4r	4r	4r	16F#	4dd	8r
.	.	.	.	16A	.	.
.	.	.	.	16d	.	8dd
.	.	.	.	16A	.	.
=18	=18	=18	=18	=18	=18	=18
4G	4d	4d	4b-	16G	8r	4b-
.	.	.	.	16B-	.	.
.	.	.	.	16d	8dd	.
.	.	.	.	16B-	.	.
4r	4r	4r	4r	16G	4b-	8r
.	.	.	.	16B-	.	.
.	.	.	.	16d	.	8b-
.	.	.	.	16B-	.	.
4F#	4d	4a	4dd	16F#	8r	4dd
.	.	.	.	16A	.	.
.	.	.	.	16d	8a	.
.	.	.	.	16A	.	.
4r	4r	4r	4r	16F#	4dd	8r
.	.	.	.	16A	.	.
.	.	.	.	16d	.	8dd
.	.	.	.	16A	.	.
=19	=19	=19	=19	=19	=19	=19
4G	4d	4d	4b-	16G	8r	4b-
.	.	.	.	16B-	.	.
.	.	.	.	16d	8dd	.
.	.	.	.	16B-	.	.
4r	4r	4r	4r	16G	4b-	8r
.	.	.	.	16B-	.	.
.	.	.	.	16d	.	8dd
.	.	.	.	16B-	.	.
4BB	4g	4dd	4gg	16BB	8r	4gg
.	.	.	.	16D	.	.
.	.	.	.	16G	8dd	.
.	.	.	.	16D	.	.
8r	8r	8r	8r	16BB	4gg	8r
.	.	.	.	16D	.	.
8BB	8g	8dd	8ff	16G	.	8ff
.	.	.	.	16D	.	.
=20	=20	=20	=20	=20	=20	=20
4C	4g	8g	8ee-	8C	8r	8ee-
.	.	8ee-	8gg	8c	8ee-	8gg
4F	8r	8dd	8ff	8F	8dd	8ff
.	8c	8cc	8ee-	8A-	8cc	8ee-
4G	4g	4cc	4ee-	4G	4cc	4ee-
4GG	4g	4b	4dd	4GG	4b	4dd
=21	=21	=21	=21	=21	=21	=21
4C	4g	4cc	4cc	16c	8cc	4cc
.	.	.	.	16G	.	.
.	.	.	.	16c	8gg	.
.	.	.	.	16G	.	.
2r	2r	2r	2r	16B	4dd	8r
.	.	.	.	16G	.	.
.	.	.	.	16B	.	8gg
.	.	.	.	16G	.	.
.	.	.	.	16c	8r	4ee-
.	.	.	.	16G	.	.
.	.	.	.	16c	8gg	.
.	.	.	.	16G	.	.
4B	4g	4dd	4gg	16B	4dd	8r
.	.	.	.	16G	.	.
.	.	.	.	16B	.	8gg
.	.	.	.	16G	.	.
=22	=22	=22	=22	=22	=22	=22
4c	4g	4g	4ee-	16c	8r	4ee-
.	.	.	.	16G	.	.
.	.	.	.	16c	8aa	.
.	.	.	.	16G	.	.
2r	2r	2r	2r	16c#	4ee	8r
.	.	.	.	16A	.	.
.	.	.	.	16c#	.	8aa
.	.	.	.	16A	.	.
.	.	.	.	16d	8r	4ff
.	.	.	.	16A	.	.
.	.	.	.	16d	8aa	.
.	.	.	.	16A	.	.
4c#	4a	4ee	4aa	16c#	4ee	8r
.	.	.	.	16A	.	.
.	.	.	.	16c#	.	8aa
.	.	.	.	16A	.	.
=23	=23	=23	=23	=23	=23	=23
4d	4d	4ff	4bb-	16d	8r	8ff
.	.	.	.	16e	.	.
.	.	.	.	16d	8ff	8bb-
.	.	.	.	16e	.	.
4c	4a	4ee	4aa	16c	8ee	8r
.	.	.	.	16d	.	.
.	.	.	.	16c	8a	8aa
.	.	.	.	16d	.	.
4B-	4b-	4dd	4gg	16B-	8r	8dd
.	.	.	.	16c	.	.
.	.	.	.	16B-	8dd	8gg
.	.	.	.	16c	.	.
4A	4f	4cc	4ff	16A	8cc	8r
.	.	.	.	16B-	.	.
.	.	.	.	16A	8f	8ff
.	.	.	.	16B-	.	.
=24	=24	=24	=24	=24	=24	=24
4G	4g	4b-	4ee-	16G	8r	8b-
.	.	.	.	16A	.	.
.	.	.	.	16G	8b-	8ee-
.	.	.	.	16A	.	.
4F	4d	4a	4dd	16F	8a	8r
.	.	.	.	16G	.	.
.	.	.	.	16F	8d	8dd
.	.	.	.	16G	.	.
4E	4e	4g	4cc#	16E	4g	4cc#
.	.	.	.	16F	.	.
.	.	.	.	16E	.	.
.	.	.	.	16F	.	.
4D	4a	8.f	[4dd	16D	8.f	[4dd
.	.	.	.	16E	.	.
.	.	.	.	16F	.	.
.	.	16e	.	16G	16e	.
=25	=25	=25	=25	=25	=25	=25
4A	4a	4f	4dd]	16A	4f	4dd]
.	.	.	.	16G	.	.
.	.	.	.	16F	.	.
.	.	.	.	16G	.	.
4AA	8r	4e	4cc#	8A	4e	4cc#
.	8a	.	.	8AA	.	.
4BB-	4d	4d	8dd	4BB-	4d	8dd
.	.	.	8d	.	.	8d
8r	8r	8r	[4g	8r	8r	[4g
8GG	8g	8b-	.	8GG	8b-	.
=26	=26	=26	=26	=26	=26	=26
8AA	4e	8c#	8g]	8AA	8c#	8g]
8C#	.	8A	8a	8C#	8A	8a
8D	8f	2d	8f	8D	2d	8f
8GG	8b-	.	8e	8GG	.	8e
2AA	4a	.	4f	2AA	.	4f
.	4A	4c#	4e	.	4c#	4e
=27	=27	=27	=27	=27	=27	=27
2DD	2A	2d	2d	2DD	2d	2d
2r	2r	2r	2r	16B-	4f	4dd
.	.	.	.	16A	.	.
.	.	.	.	16B-	.	.
.	.	.	.	16c	.	.
.	.	.	.	16B-	4dd	4b-
.	.	.	.	16d	.	.
.	.	.	.	16c	.	.
.	.	.	.	16B-	.	.
=28	=28	=28	=28	=28	=28	=28
2r	2r	2r	2r	16A	4cc	4ff
.	.	.	.	16G	.	.
.	.	.	.	16A	.	.
.	.	.	.	16B-	.	.
.	.	.	.	16A	4f	8r
.	.	.	.	16c	.	.
.	.	.	.	16B-	.	8f
.	.	.	.	16A	.	.
4G	4d	4dd	4b-	16G	8r	4b-
.	.	.	.	16F	.	.
.	.	.	.	16G	8bb-	.
.	.	.	.	16A	.	.
4C	4c	4ee	4b-	16G	4ee	8r
.	.	.	.	16B-	.	.
.	.	.	.	16A	.	8cc
.	.	.	.	16G	.	.
=29	=29	=29	=29	=29	=29	=29
4F	4c	4ff	4a	16F	8r	4a
.	.	.	.	16E	.	.
.	.	.	.	16F	8cc	.
.	.	.	.	16G	.	.
4r	4r	4r	4r	16F	4ff	8r
.	.	.	.	16G	.	.
.	.	.	.	16F	.	8ff
.	.	.	.	16E-	.	.
4D	4f	4b-	4ff	16D	8r	4bb-
.	.	.	.	16B-	.	.
.	.	.	.	16A	8ff	.
.	.	.	.	16B-	.	.
4r	4r	4r	4r	16D	4bb-	8r
.	.	.	.	16B-	.	.
.	.	.	.	16A	.	8ff
.	.	.	.	16B-	.	.
=30	=30	=30	=30	=30	=30	=30
4E-	4e-	4b-	4gg	16E-	8r	4gg
.	.	.	.	16F	.	.
.	.	.	.	16G	8bb-	.
.	.	.	.	16F	.	.
4r	4r	4r	4r	16E-	4gg	8r
.	.	.	.	16F	.	.
.	.	.	.	16G	.	8gg
.	.	.	.	16F	.	.
4E	4g	4cc	4gg	16E	8r	4ccc
.	.	.	.	16c	.	.
.	.	.	.	16B	8gg	.
.	.	.	.	16c	.	.
4r	4r	4r	4r	16E	4ccc	8r
.	.	.	.	16c	.	.
.	.	.	.	16B	.	8gg
.	.	.	.	16c	.	.
=31	=31	=31	=31	=31	=31	=31
4F	4f	4cc	4aa	16A	8r	4aa
.	.	.	.	16F	.	.
.	.	.	.	16E-	8ff	.
.	.	.	.	16F	.	.
2.r	2.r	2.r	2.r	16D	4.bb-	8r
.	.	.	.	16B-	.	.
.	.	.	.	16A	.	8ff
.	.	.	.	16B-	.	.
.	.	.	.	16E-	.	4.bb-
.	.	.	.	16B-	.	.
.	.	.	.	16A	8ff	.
.	.	.	.	16B-	.	.
.	.	.	.	16F	[4bb-	.
.	.	.	.	16B-	.	.
.	.	.	.	16A	.	8ff
.	.	.	.	16B-	.	.
=32	=32	=32	=32	=32	=32	=32
2r	2r	2r	2r	16G	8bb-]	4.bb-
.	.	.	.	16B-	.	.
.	.	.	.	16A	8ff	.
.	.	.	.	16B-	.	.
.	.	.	.	16D	4bb-	.
.	.	.	.	16B-	.	.
.	.	.	.	16A	.	8ff
.	.	.	.	16B-	.	.
4.E-	4e-	4b-	4.gg	16E-	8r	4gg
.	.	.	.	16D	.	.
.	.	.	.	16E-	8b-	.
.	.	.	.	16F	.	.
.	8r	[4ee-	.	16G	[4ee-	8r
.	.	.	.	16F	.	.
8E-	8g	.	8g	16G	.	8g
.	.	.	.	16E-	.	.
=33	=33	=33	=33	=33	=33	=33
4F	4c	4ee-]	8a	16F	4ee-]	8a
.	.	.	.	16G	.	.
.	.	.	8f	16F	.	8f
.	.	.	.	16E-	.	.
4D	8r	8.ff	2b-	16D	8.ff	2b-
.	.	.	.	16C	.	.
.	8d	.	.	16D	.	.
.	.	16gg	.	16BB-	16gg	.
4E-	8g	4dd	.	16E-	4dd	.
.	.	.	.	16D	.	.
.	8b-	.	.	16E-	.	.
.	.	.	.	16C	.	.
4F	4f	4cc	4a	16F	4cc	4a
.	.	.	.	16E-	.	.
.	.	.	.	16F	.	.
.	.	.	.	16FF	.	.
=34	=34	=34	=34	=34	=34	=34
4BB-	4d	4b-	4b-	16BB-	8b-	4b-
.	.	.	.	16B-	.	.
.	.	.	.	16A	8ff	.
.	.	.	.	16B-	.	.
2.r	2.r	2.r	2.r	16D	4.bb-	8r
.	.	.	.	16B-	.	.
.	.	.	.	16A	.	8ff
.	.	.	.	16B-	.	.
.	.	.	.	16E-	.	4.bb-
.	.	.	.	16B-	.	.
.	.	.	.	16A	8ff	.
.	.	.	.	16B-	.	.
.	.	.	.	16F	[4bb-	.
.	.	.	.	16B-	.	.
.	.	.	.	16A	.	8ff
.	.	.	.	16B-	.	.
=35	=35	=35	=35	=35	=35	=35
2r	2r	2r	2r	16G	8bb-]	4.bb-
.	.	.	.	16B-	.	.
.	.	.	.	16A	8ff	.
.	.	.	.	16B-	.	.
.	.	.	.	16D	4bb-	.
.	.	.	.	16B-	.	.
.	.	.	.	16A	.	8ff
.	.	.	.	16B-	.	.
4.E-	4e-	4b-	4.gg	16E-	8r	4gg
.	.	.	.	16D	.	.
.	.	.	.	16E-	8b-	.
.	.	.	.	16F	.	.
.	8r	[4ee-	.	16G	[4ee-	8r
.	.	.	.	16F	.	.
8E-	8g	.	8g	16G	.	8g
.	.	.	.	16E-	.	.
=36	=36	=36	=36	=36	=36	=36
4F	4c	4ee-]	8a	16F	4ee-]	8a
.	.	.	.	16G	.	.
.	.	.	8f	16F	.	8f
.	.	.	.	16E-	.	.
4D	8r	8.ff	2b-	16D	8.ff	2b-
.	.	.	.	16C	.	.
.	8d	.	.	16D	.	.
.	.	16gg	.	16BB-	16gg	.
4E-	8g	4dd	.	16E-	4dd	.
.	.	.	.	16D	.	.
.	8b-	.	.	16E-	.	.
.	.	.	.	16C	.	.
4F	4f	4cc	4a	16F	4cc	4a
.	.	.	.	16E-	.	.
.	.	.	.	16F	.	.
.	.	.	.	16FF	.	.
=37	=37	=37	=37	=37	=37	=37
4BB-	4d	4b-	8b-	4BB-	4b-	8b-
.	.	.	8B-	.	.	8B-
8r	8r	8r	2e-	8r	8r	2e-
8E-	8e-	8g	.	8E-	8g	.
4F	4c	4A	.	4F	4A	.
4BB-	8d	[4B-	8d	4BB-	[4B-	8d
.	8e-	.	8c	.	.	8c
=38	=38	=38	=38	=38	=38	=38
4F	4.f	4B-]	4d	4F	4B-]	4d
4FF	.	4A	4c	4FF	4A	4c
.	8f	.	.	.	.	.
2BB-	2d	2B-	2B-	2BB-	2B-	2B-
==	==	==	==	==	==	==
*-	*-	*-	*-	*-	*-	*-
!!!RWG: This file only contains pitch and duration data.
!!!RWG: Transposing instruments are not transposed.
!!!RWG: Durations of rests and tied notes may be interpreted.
!!!RWG: Key is interpreted using the Humdrum key tool.
!!!SCA: 
!!!YOR: Chrysander Edition
!!!AGN: concerto grosso
!!!AFT: stage1
!!!ENC: F. Bennion
!!!END: 1997/04/15
!!!AST: baroque
!!!YEC: Copyright 1994, Center for Computer Assisted Research in the Humanities
!!!YEM: Rights to all derivative electronic formats reserved.
!!!YEM: Refer to licensing agreement for further details.
!!!YEN: United States of America
!!!EED: W.B. Hewlett
!!!KEY: 1693059680
!!!EMD: Converted from MuseData to Humdrum Aug 2, 1999, by Bret Aarden using muse2kern.
!!!VTS: 3707795704
